X:12
T:The Skylark
C:Trad.
D:"Cooley", track 9b
M:4/4
R:reel
K:D
fg|:agfg efdB|A~F3 DFAF|B~G3 EFGE|FAAG FAA2|
agfg efdB|A~F3 DFAd|B~G3 G2ag|fgeg fdd2:|
|:a2fd Adfd|efed BAA2|a2fa bged|B~e3 efge|
~f3a ~g3a|fgef dBAF|FA~A2 G2ag|fgeg fdd2:|
